public/images/no1.svg

<svg width="18" height="22" viewBox="0 0 18 22" fill="none" xmlns="http://www.w3.org/2000/svg">
<path d="M7.78589 4.39044C8.54095 3.97097 9.45905 3.97097 10.2141 4.39044L15.2141 7.16822C16.0078 7.60914 16.5 8.4457 16.5 9.35361V14.6464C16.5 15.5543 16.0078 16.3909 15.2141 16.8318L10.2141 19.6096C9.45905 20.029 8.54095 20.029 7.78589 19.6096L2.78589 16.8318C1.99223 16.3909 1.5 15.5543 1.5 14.6464V9.35361C1.5 8.4457 1.99223 7.60914 2.78589 7.16822L7.78589 4.39044Z" fill="#FFD991" stroke="#A98711" stroke-width="3"/>
<path d="M7.78589 2.39044C8.54095 1.97097 9.45905 1.97097 10.2141 2.39044L15.2141 5.16822C16.0078 5.60914 16.5 6.4457 16.5 7.35361V12.6464C16.5 13.5543 16.0078 14.3909 15.2141 14.8318L10.2141 17.6096C9.45905 18.029 8.54095 18.029 7.78589 17.6096L2.78589 14.8318C1.99223 14.3909 1.5 13.5543 1.5 12.6464V7.35361C1.5 6.4457 1.99223 5.60914 2.78589 5.16822L7.78589 2.39044Z" fill="#FFAC0A" stroke="#FFCF24" stroke-width="3"/>
<path d="M6.0905 13.8499C6.00983 13.8499 5.94017 13.8206 5.8815 13.7619C5.82283 13.7032 5.7935 13.6336 5.7935 13.5529V11.8809C5.7935 11.8002 5.82283 11.7306 5.8815 11.6719C5.94017 11.6132 6.00983 11.5839 6.0905 11.5839H7.9605V9.1089L6.9925 9.8239C6.9485 9.86057 6.8935 9.8789 6.8275 9.8789C6.73217 9.8789 6.64783 9.83124 6.5745 9.7359L5.6065 8.4819C5.57717 8.40857 5.5625 8.35357 5.5625 8.3169C5.5625 8.26557 5.5735 8.2179 5.5955 8.1739C5.62483 8.12257 5.6615 8.08224 5.7055 8.0529L8.0925 6.2269C8.16583 6.17557 8.2465 6.1499 8.3345 6.1499H10.4135C10.4942 6.1499 10.5638 6.17924 10.6225 6.2379C10.6812 6.29657 10.7105 6.36624 10.7105 6.4469V11.5839H12.1405C12.2212 11.5839 12.2908 11.6132 12.3495 11.6719C12.4082 11.7306 12.4375 11.8002 12.4375 11.8809V13.5529C12.4375 13.6336 12.4082 13.7032 12.3495 13.7619C12.2908 13.8206 12.2212 13.8499 12.1405 13.8499H6.0905Z" fill="white"/>
</svg>

<svg xmlns="http://www.w3.org/2000/svg" width="18" height="22" fill="none"><path fill="#FFD991" stroke="#A98711" stroke-width="3" d="M7.786 4.39a2.5 2.5 0 0 1 2.428 0l5 2.778A2.5 2.5 0 0 1 16.5 9.354v5.292a2.5 2.5 0 0 1-1.286 2.186l-5 2.778a2.5 2.5 0 0 1-2.428 0l-5-2.778A2.5 2.5 0 0 1 1.5 14.646V9.354a2.5 2.5 0 0 1 1.286-2.186l5-2.778Z"/><path fill="#FFAC0A" stroke="#FFCF24" stroke-width="3" d="M7.786 2.39a2.5 2.5 0 0 1 2.428 0l5 2.778A2.5 2.5 0 0 1 16.5 7.354v5.292a2.5 2.5 0 0 1-1.286 2.186l-5 2.778a2.5 2.5 0 0 1-2.428 0l-5-2.778A2.5 2.5 0 0 1 1.5 12.646V7.354a2.5 2.5 0 0 1 1.286-2.186l5-2.778Z"/><path fill="#fff" d="M6.09 13.85c-.08 0-.15-.03-.208-.088a.286.286 0 0 1-.088-.21v-1.671c0-.08.029-.15.088-.21a.285.285 0 0 1 .208-.087h1.87V9.109l-.968.715a.249.249 0 0 1-.165.055c-.095 0-.18-.048-.253-.143l-.968-1.254a.5.5 0 0 1-.043-.165c0-.051.01-.1.033-.143a.352.352 0 0 1 .11-.121l2.386-1.826a.413.413 0 0 1 .242-.077h2.08c.08 0 .15.03.209.088a.285.285 0 0 1 .088.209v5.137h1.43c.08 0 .15.03.209.088a.285.285 0 0 1 .088.209v1.672c0 .08-.03.15-.088.209a.285.285 0 0 1-.21.088H6.09Z"/></svg>
